X: 173
M: C|
L: 1/8
K: C
|:\
c2 B2 c2 B>A | G>F E>F G2 FE |\
|:\
c>d e2 c>d e2 | c>de>f d>BA>G |
c>d e2 c>d e2 | c>d e>f g3 a |\
g>fe>d c>BA>e | f2 A>e f3 e |\
f>ed>c B>A GF/E/ | F2 G2 c4 :|

